X: 10
T: Cantiga 10: Rosa das rosas
N: 
B:Cantigas de Santa Maria
F:http://www.pbm.com/~lindahl/cantigas/facsimiles/E/075small.html
F:http://www.pbm.com/~lindahl/cantigas/facsimiles/To/bob010small.gif
Z:Ali Corbin <ali.corbin:gmail.com>
M: 6/8
L: 1/8
Q: 1/8=200
K: D Dorian
V:1
%Staff 1
%%MIDI program 74
%
  D3  C  D2|(E/F/G2) (F/E/D2)|D3   C   D2| F2 F4 |
w:Ro-sa das  ro-**    sas**   e  Fror das fro-res,
  F3  G  A2|(A2G) (F/E/) D2| C3   D  E2| D2 (D3E) ||
w:Do-na das  do-*  nas,* Se-nnor das se-nno-res.*
  c3  c d2 |(c2B)  A  (GA)|F3  G (A_B)| A3 z3|
w:Ro-sa de   bel-*dad' e*  de pa- re-* cer
  c3  c   d2|(c2B)  A (GA)|F3  G (A_B)| A3 z3|
w:e Fror d'a- leg-*ri- a*  e  de  pra-* zer,
  F3  F F2|G3   G A2|(G/F2E/) D (DE)|C3 z3|
w:Do-na en mui pi-a-  do-**  sa  se-*er,
  F3   G  A2|(A2G) (F/E/) D2| C3 D E2|D2 (D3E)||
w:Se-nnor en  tol-* ler* coi-tas e do-o-res.*
%
%%multicol start
%%leftmargin  4cm
%%rightmargin 4cm
%%begintext
%%
%%
Esta é de loor de Santa Maria, com' é fremosa e bõa e á gran poder.
%%
%%endtext
%%multicol end
%%multicol start
%%leftmargin  6cm
%%rightmargin 6cm
%%begintext
%% 
Rosa das rosas e Fror das frores,
Dona das donas, Sennor das sennores.
%%
%%endtext
%%multicol end
%%multicol start
%%rightmargin 11.5cm
%%begintext
%%
Rosa de beldad' e de parecer
e Fror d'alegria e de prazer,
Dona en mui piadosa seer,
Sennor en toller coitas e doores.
  Rosas das rosas...
%% 
Atal Sennor dev' ome muit' amar,
que de todo mal o pode guardar;
e pode-ll' os peccados perdõar,
que faz no mundo per maos sabores.
  Rosas das rosas...
%%
%%endtext
%%multicol new
%%leftmargin 11cm
%%begintext
%% 
Devemo-la muit' amar e servir,
ca punna de nos guardar de falir;
des i dos erros nos faz repentir,
que nos fazemos come pecadores.
  Rosas das rosas...
%%
Esta dona que tenno por Sennor
e de que quero seer trobador,
se eu per ren poss' aver seu amor,
dou ao demo os outros amores.
  Rosas das rosas...
%%endtext
%%multicol end


%%landscape 0
